!!!!SEGMENT: pl-cz--i-155--011_anonim--landler-4.krn
!!!cenid: 18xx:2520
!!!COM: Anonim
!!!COM-rismID: pe30004985
!!!CDT:
!!!CNT:
!!!OTL: Ländler 4
!!!PDT:
!!!AGN: Secular
!!!SMS-siglum: PL-CZ
!!!SMS-shelfmark: I-155
!!!SMS-shelfwork: 011 W
!!!SMS-variant:
!!!SMS-altvar:
!!!NIFC-rismSourceID: 1001012523
!!!NIFC-islandoraID: pl-cz:814
!!!URL-pdf-islandora: https://repozytorium.nifc.pl/islandora/object/pl-cz%3A814/datastream/PDF/view
!!!URL-scan: https://polish.musicsources.pl/pl/lokalizacje/galeria/rekopisy/557 @EN{Scan on Polish Music Sources Website} @PL{Skany w portalu Dziedzictwo Muzyki Polskiej w otwartym dostępie}
!!!ONB-nifc: UWAGA: 10 krótkich Landler numerowanych na pięcioliniach (nr 1-10, odpowiednio 008-017). m.in skan 0026. Uwaga: 5 partii
!!!AIN: 2 clars 2 cor 1 fagot
!!!key:
**kern	**kern	**kern	**kern	**kern
*part5	*part4	*part3	*part2	*part1
*staff5	*staff4	*staff3	*staff2	*staff1
*Icor	*Icor	*Ifagot	*Iclars	*Iclars
*I"Corno Secondo	*I"Corno Primo.	*I"Fagotto	*I"Clarinetto 2do	*I"Clarinetto Primo[?]
*I'cor 2	*I'cor 1	*I'fag	*I'cl 2	*I'cl 1
*clefG2	*clefG2	*clefF4	*clefG2	*clefG2
*ITrd5c9	*ITrd5c9	*	*ITrd1c2	*ITrd1c2
*k[b-]	*k[b-]	*k[b-]	*k[b-]	*k[b-]
*F:	*F:	*F:	*F:	*F:
*M3/4	*M3/4	*M3/4	*M3/4	*M3/4
*	*	*	*all\right	*all\right
*	*	*	*2\right	*2\right
*>[A,A,B,B]	*>[A,A,B,B]	*>[A,A,B,B]	*>[A,A,B,B]	*>[A,A,B,B]
*>A	*>A	*>A	*>A	*>A
!	!	!	!	!LO:TX:a:t=P:problem=partia zapisana w sekcji źródła przeznaczonej dla cl 2
4ryy	4ryy	4ryy	8a/L	8cc\L
.	.	.	8g/J	8b-\J
=1	=1	=1	=1	=1
2.ryy	2.ryy	2.ryy	8f/L	8a\L
.	.	.	8a/	8cc\
.	.	.	8g/	8b-\
.	.	.	8b-/J	8dd\J
.	.	.	4a/	4cc\
=2	=2	=2	=2	=2
2.ryy	2.ryy	2.ryy	8ff\L	8aa\L
.	.	.	8cc\J	8ff\
.	.	.	4a/	8ee\
.	.	.	.	8ff\
.	.	.	8a/L	8cc\
.	.	.	8f/J	8a\J
=3	=3	=3	=3	=3
2.ryy	2.ryy	2.ryy	8e/L	8g\L
.	.	.	8g/	8b-\
.	.	.	8f/	8a\
.	.	.	8a/J	8cc\J
.	.	.	4g/	4b-\
=4	=4	=4	=4	=4
2.ryy	2.ryy	2.ryy	8ee\L	8gg\L
.	.	.	8dd\	8ff\
.	.	.	8cc\	8ee\
.	.	.	8b-\	8dd\
.	.	.	8a\	8cc\
.	.	.	8g\J	8b-\J
=5	=5	=5	=5	=5
2.ryy	2.ryy	2.ryy	8f/L	8a\L
.	.	.	8a/	8cc\
.	.	.	8g/	8b-\
.	.	.	8b-/J	8dd\J
.	.	.	4a/	4cc\
=6	=6	=6	=6	=6
2.ryy	2.ryy	2.ryy	8ff\L	8aa\L
.	.	.	8cc\	8ff\
.	.	.	8a\	8ee\
.	.	.	8cc\	8ff\
.	.	.	8ff\	8cc\
.	.	.	8cc\J	8a\J
=7	=7	=7	=7	=7
2.ryy	2.ryy	2.ryy	8gg\L	8bb-\L
.	.	.	8ee\J	8gg\
*	*	*	*tremolo	*
.	.	.	8b-\L	8ff#X\
.	.	.	8dd\	8gg\
.	.	.	8b-\	8ee\
.	.	.	8dd\J	8cc\J
*	*	*	*Xtremolo	*
!	!	!	!LO:LB:g=original	!
=8	=8	=8	=8	=8
2ryy	2ryy	2ryy	2a\	2ff\
!	!	!	!	!LO:LB:g=original
=:||:	=:||:	=:||:	=:||:	=:||:
*>B	*>B	*>B	*>B	*>B
4ryy	4ryy	4ryy	8a\L	8cc\L
.	.	.	8cc\J	8ee\J
=9	=9	=9	=9	=9
2.ryy	2.ryy	2.ryy	8ee\L	8gg\L
.	.	.	8cc\	8ee\
.	.	.	8g\	8cc\
.	.	.	8gg\J	8bb-\J
.	.	.	4ee\	4gg\
=10	=10	=10	=10	=10
2.ryy	2.ryy	2.ryy	8ff\L	8aa\L
.	.	.	8cc\	8ff\
.	.	.	8a\	8cc\
.	.	.	8aa\J	8ccc\J
.	.	.	4ff\	4aa\
=11	=11	=11	=11	=11
2.ryy	2.ryy	2.ryy	8gg\L	8bb-\L
!	!	!	!LO:SIC:v:s=8ff#	!
.	.	.	8ff\J	8gg\J
.	.	.	4cc\	4ee\
.	.	.	4b-\	8cc\L
.	.	.	.	8ee\J
=12	=12	=12	=12	=12
2.ryy	2.ryy	2.ryy	8a\L	8ff\L
.	.	.	8cc\	8gg\
.	.	.	8ff\	8aa\
.	.	.	8gg\	8bb-\
.	.	.	8aa\	8ccc\
.	.	.	8ff\J	8aa\J
=13	=13	=13	=13	=13
2.ryy	2.ryy	2.ryy	8ee\L	8gg\L
.	.	.	8cc\	8ee\
.	.	.	8g\	8cc\
.	.	.	8gg\J	8bb-\J
.	.	.	4ee\	4gg\
=14	=14	=14	=14	=14
2.ryy	2.ryy	2.ryy	8ff\L	8aa\L
.	.	.	8cc\	8ff\
.	.	.	8a\	8cc\
.	.	.	8aa\J	8ccc\J
.	.	.	4ff\	4aa\
=15	=15	=15	=15	=15
2.ryy	2.ryy	2.ryy	8gg\L	8bb-\L
.	.	.	8ee\J	8gg\J
.	.	.	4cc\	4ee\
.	.	.	8cc\L	8cc\L
.	.	.	8b-\J	8ee\J
=16	=16	=16	=16	=16
2ryy	2ryy	2ryy	2a\	2ff\
=:|!	=:|!	=:|!	=:|!	=:|!
*-	*-	*-	*-	*-
!!!system-decoration: [(s1,s2,s3)][(s4,s5)]
!!!ENC: Krzysztof Stępień
!!!END: 2021-06-16
!!!EED: Antoni Szymański
!!!EEV: 2021-06-21
